X: 35506
T: Rue Des Prés
R: barndance
M: 4/4
K: Gmajor
GA|B2G2 GBAG|B2F2 F2Bd|c3B AGAB|B2A2 A2GA|
B2G2 GBAG|B2F2 F2Bd|c3B AGAB|1 A6:|2 A3A ABcd ]|
|:e3e- edcd|efg2 g2fe|d2de d2B2|G3G- GEEF|
G3G GEGA|B2F2 F2Bd|c3B AGAB|1 A3A ABcd:|2 A6||

